X:1499
T:Denny Byrne, the Piper
T:The Cow (That) Ate the Piper
O:england
M:C
L:1/8
S:Henry's Songs of the People (Ed. Hunnington, Hermann, Moulton), 1990, p.
K:D
dd|d2DD D2AA|A2GF E2FG|A2BA A2GF|E4 D2dd|
dd|d2DD D2AA|A2GF E2FG|A2BA A2GF|E4 D2dd|
AA|A2Bc d2dd|e2dA A2cd|e2cA c2BA|B4 A2|
dd|d2DD D2AA|A2GF E2FG|A2BA A2GF|E4 D2||


